learning-site/svg (72).svg

<svg xmlns="http://www.w3.org/2000/svg" xmlns:xlink="http://www.w3.org/1999/xlink" viewBox="0 0 100 100" version="1.1"><!-- Generator: Sketch 51.3 (57544) - http://www.bohemiancoding.com/sketch --><title>manage-virtual-machines-with-the-azure-cli-tool-2</title><desc>Created with Sketch.</desc><defs><filter x="-2.0%" y="-2.6%" width="104.1%" height="110.3%" filterUnits="objectBoundingBox" id="filter-1"><feOffset dx="0" dy="2" in="SourceAlpha" result="shadowOffsetOuter1"></feOffset><feColorMatrix values="0 0 0 0 0   0 0 0 0 0   0 0 0 0 0  0 0 0 0.0979676178 0" type="matrix" in="shadowOffsetOuter1" result="shadowMatrixOuter1"></feColorMatrix><feMerge><feMergeNode in="shadowMatrixOuter1"></feMergeNode><feMergeNode in="SourceGraphic"></feMergeNode></feMerge></filter><linearGradient x1="50%" y1="0%" x2="50%" y2="100%" id="linearGradient-2"><stop stop-color="#FFFFFF" stop-opacity="0.5" offset="0%"></stop><stop stop-color="#000000" stop-opacity="0.5" offset="100%"></stop></linearGradient><path d="M1.81382334,29.0211735 C0.815767049,29.0211735 0,28.204953 0,27.2073502 L0,4.53455836 C0,3.53695552 0.815767049,2.72073502 1.81382334,2.72073502 L19.9520568,2.72073502 C20.9496596,2.72073502 21.7658801,3.53695552 21.7658801,4.53455836 L21.7658801,27.2073502 C21.7658801,28.204953 20.9496596,29.0211735 19.9520568,29.0211735 L1.81382334,29.0211735" id="path-3"></path><polygon id="path-4" points="0 0.0181382334 9.06866327 0.0181382334 9.06866327 5.44147003 0 5.44147003"></polygon><filter x="-10.4%" y="-3.1%" width="112.5%" height="118.8%" filterUnits="objectBoundingBox" id="filter-6"><feOffset dx="-1" dy="1" in="SourceAlpha" result="shadowOffsetOuter1"></feOffset><feColorMatrix values="0 0 0 0 0   0 0 0 0 0   0 0 0 0 0  0 0 0 0.0955615942 0" type="matrix" in="shadowOffsetOuter1" result="shadowMatrixOuter1"></feColorMatrix><feMerge><feMergeNode in="shadowMatrixOuter1"></feMergeNode><feMergeNode in="SourceGraphic"></feMergeNode></feMerge></filter></defs><g id="Badges-FINAL" stroke="none" stroke-width="1" fill="none" fill-rule="evenodd"><g id="Adminster-infrastructure-resources-in-Azure" transform="translate(-576.000000, -908.000000)"><g id="manage-virtual-machines-with-the-azure-cli-tool-2" transform="translate(575.013522, 908.000000)"><rect id="BG" fill="#D9EAF8" x="3" y="2" width="96" height="96" rx="48"></rect><ellipse id="Shadow" fill="#000000" opacity="0.100000001" cx="50.5654326" cy="81.6961348" rx="23.0822873" ry="4.02225632"></ellipse><g id="Man" transform="translate(50.986478, 52.819169) rotate(-1.000000) translate(-50.986478, -52.819169) translate(16.986478, 20.319169)"><g id="Legs" transform="translate(32.909503, 49.720159) rotate(-4.000000) translate(-32.909503, -49.720159) translate(19.909503, 35.720159)" fill="#30404D" fill-rule="nonzero"><path d="M18.6569578,24.5946056 L20.9499305,16.5980595 C21.4991876,14.6825725 21.4636507,12.6466673 20.8478787,10.751516 L18.6237525,3.90635915 C18.3166682,2.96125094 18.8338888,1.94614837 19.778997,1.6390641 C20.7241052,1.33197982 21.7392078,1.84920042 22.046292,2.79430863 L24.5139455,10.5492915 C25.0899263,12.3594001 25.1384418,14.2961181 24.6538144,16.1327953 L22.6565173,23.7023017 L23.3101934,23.7941699 C24.294268,23.9324726 24.9799015,24.842339 24.8415989,25.8264136 C24.7032962,26.8104881 23.7934297,27.4961216 22.8093552,27.357819 L20.3405171,27.0108464 C19.2385109,26.9337866 18.3419396,25.9394118 18.6569578,24.5946056 Z" id="Combined-Shape"></path><path d="M4.7184218,22.3983591 L4.38117766,17.8459426 C4.11795757,14.2927674 4.23527782,10.7216348 4.73113928,7.19339721 L5.48773121,1.80996591 C5.62603386,0.825891392 6.53590033,0.140257828 7.51997485,0.278560482 C8.50404936,0.416863136 9.18968293,1.32672961 9.05138027,2.31080412 L8.3603403,7.22780902 C7.87409009,10.687659 7.75182243,14.1889467 7.99554122,17.6742878 L8.43838081,24.0071889 C8.46486426,24.3859199 8.37213567,24.7454569 8.19213932,25.0490525 C7.88868516,25.5856774 7.31718281,25.9522168 6.65620395,25.9637542 L3.33252489,26.0217693 C2.33893066,26.0391125 1.51940391,25.2477047 1.50206066,24.2541105 C1.48471741,23.2605163 2.27612519,22.4409895 3.26971942,22.4236463 L4.7184218,22.3983591 Z" id="Combined-Shape" transform="translate(5.285448, 13.141437) rotate(4.000000) translate(-5.285448, -13.141437) "></path></g><g id="Arm" transform="translate(55.179631, 11.119382)" fill="#30404D" fill-rule="nonzero"><path d="M2.00941725,17.4034091 L6.57122826,12.1556458 C7.2692043,11.3527162 7.21642579,10.1438897 6.45112584,9.40484815 L0.941448954,4.08421503 C0.226608207,3.39390134 0.206725095,2.25479861 0.89703878,1.53995786 C1.58735247,0.825117112 1.67693528,0.0425944547 2.39177603,0.73290814 L10.5544222,9.49771889 C11.2148409,10.2068572 11.2718786,11.2874243 10.6897855,12.0621485 L6.03247029,18.2607015 C6.51508951,18.7397762 6.70402588,19.4732491 6.4561713,20.1542239 C6.1162903,21.0880393 5.08375536,21.5695183 4.14993997,21.2296373 L2.71025041,20.7056331 C1.85158375,20.393104 1.37537947,19.4949178 1.56854696,18.6263535 C1.55820611,18.1936135 1.70305611,17.7558373 2.00941725,17.4034091 Z" id="Combined-Shape"></path></g><g id="Body" filter="url(#filter-1)" transform="translate(34.333462, 21.178224) rotate(2.000000) translate(-34.333462, -21.178224) translate(9.833462, 1.678224)"><path d="M3.00219376,38.6636726 C1.35098719,38.6636726 0,37.3748836 0,35.7996969 L0,2.86397575 C0,1.28878909 1.35098719,0 3.00219376,0 L45.0329064,0 C46.684113,0 48.0351002,1.28878909 48.0351002,2.86397575 L48.0351002,35.7996969 C48.0351002,37.3748836 46.684113,38.6636726 45.0329064,38.6636726 L3.00219376,38.6636726" id="Fill-1465" fill="#30404D"></path><path d="M3.7527422,36.5156908 C2.92713892,36.5156908 2.25164532,35.8712963 2.25164532,35.083703 L2.25164532,7.87593332 C2.25164532,7.08833998 2.92713892,6.44394544 3.7527422,6.44394544 L44.282358,6.44394544 C45.1079613,6.44394544 45.7834549,7.08833998 45.7834549,7.87593332 L45.7834549,35.083703 C45.7834549,35.8712963 45.1079613,36.5156908 44.282358,36.5156908 L3.7527422,36.5156908" id="Fill-1466" fill="#E1E4E1"></path><path d="M3.00219376,3.22197272 C3.00219376,2.62841375 3.50656231,2.14798181 4.12801642,2.14798181 C4.75022108,2.14798181 5.25383908,2.62841375 5.25383908,3.22197272 C5.25383908,3.8148157 4.75022108,4.29596363 4.12801642,4.29596363 C3.50656231,4.29596363 3.00219376,3.8148157 3.00219376,3.22197272" id="Fill-1467" fill="#DF5142"></path><path d="M7.5054844,3.22197272 C7.5054844,2.62841375 8.00985295,2.14798181 8.63130706,2.14798181 C9.25351172,2.14798181 9.75712972,2.62841375 9.75712972,3.22197272 C9.75712972,3.8148157 9.25351172,4.29596363 8.63130706,4.29596363 C8.00985295,4.29596363 7.5054844,3.8148157 7.5054844,3.22197272" id="Fill-1468" fill="#EFB252"></path><path d="M12.008775,3.22197272 C12.008775,2.62841375 12.5131436,2.14798181 13.1345977,2.14798181 C13.7568024,2.14798181 14.2604204,2.62841375 14.2604204,3.22197272 C14.2604204,3.8148157 13.7568024,4.29596363 13.1345977,4.29596363 C12.5131436,4.29596363 12.008775,3.8148157 12.008775,3.22197272" id="Fill-1469" fill="#7CB65A"></path><path d="M44.6576322,4.29596363 L19.1389852,4.29596363 C18.5167806,4.29596363 18.0131626,3.8148157 18.0131626,3.22197272 C18.0131626,2.62912974 18.5167806,2.14798181 19.1389852,2.14798181 L44.6576322,2.14798181 C45.2798369,2.14798181 45.7834549,2.62912974 45.7834549,3.22197272 C45.7834549,3.8148157 45.2798369,4.29596363 44.6576322,4.29596363" id="Fill-1470" fill="#697D85"></path><path d="M19.5142594,20.0478303 C19.5142594,20.4416269 19.1765126,20.7638242 18.763711,20.7638242 L6.75493596,20.7638242 C6.34213432,20.7638242 6.00438752,20.4416269 6.00438752,20.0478303 L6.00438752,10.7399091 C6.00438752,10.3461124 6.34213432,10.0239151 6.75493596,10.0239151 L18.763711,10.0239151 C19.1765126,10.0239151 19.5142594,10.3461124 19.5142594,10.7399091 L19.5142594,20.0478303" id="Fill-1471" fill="#C5CCCD"></path><path d="M41.2801642,11.455903 L22.5164532,11.455903 C22.1013999,11.455903 21.7659048,11.1358537 21.7659048,10.7399091 C21.7659048,10.3439644 22.1013999,10.0239151 22.5164532,10.0239151 L41.2801642,10.0239151 C41.6952175,10.0239151 42.0307127,10.3439644 42.0307127,10.7399091 C42.0307127,11.1358537 41.6952175,11.455903 41.2801642,11.455903" id="Fill-1472" fill="#C5CCCD"></path><path d="M41.2801642,15.7518666 L22.5164532,15.7518666 C22.1013999,15.7518666 21.7659048,15.4318173 21.7659048,15.0358727 C21.7659048,14.639928 22.1013999,14.3198788 22.5164532,14.3198788 L41.2801642,14.3198788 C41.6952175,14.3198788 42.0307127,14.639928 42.0307127,15.0358727 C42.0307127,15.4318173 41.6952175,15.7518666 41.2801642,15.7518666" id="Fill-1473" fill="#C5CCCD"></path><path d="M41.2801642,20.0478303 L22.5164532,20.0478303 C22.1013999,20.0478303 21.7659048,19.727781 21.7659048,19.3318363 C21.7659048,18.9358917 22.1013999,18.6158424 22.5164532,18.6158424 L41.2801642,18.6158424 C41.6952175,18.6158424 42.0307127,18.9358917 42.0307127,19.3318363 C42.0307127,19.727781 41.6952175,20.0478303 41.2801642,20.0478303" id="Fill-1474" fill="#C5CCCD"></path><path d="M41.2801642,24.3437939 L6.75493596,24.3437939 C6.33988267,24.3437939 6.00438752,24.0237446 6.00438752,23.6277999 C6.00438752,23.2318553 6.33988267,22.911806 6.75493596,22.911806 L41.2801642,22.911806 C41.6952175,22.911806 42.0307127,23.2318553 42.0307127,23.6277999 C42.0307127,24.0237446 41.6952175,24.3437939 41.2801642,24.3437939" id="Fill-1475" fill="#C5CCCD"></path><path d="M41.2801642,28.6397575 L6.75493596,28.6397575 C6.33988267,28.6397575 6.00438752,28.3197082 6.00438752,27.9237636 C6.00438752,27.5278189 6.33988267,27.2077696 6.75493596,27.2077696 L41.2801642,27.2077696 C41.6952175,27.2077696 42.0307127,27.5278189 42.0307127,27.9237636 C42.0307127,28.3197082 41.6952175,28.6397575 41.2801642,28.6397575" id="Fill-1476" fill="#C5CCCD"></path><path d="M41.2801642,32.9357211 L6.75493596,32.9357211 C6.33988267,32.9357211 6.00438752,32.6156718 6.00438752,32.2197272 C6.00438752,31.8237826 6.33988267,31.5037333 6.75493596,31.5037333 L41.2801642,31.5037333 C41.6952175,31.5037333 42.0307127,31.8237826 42.0307127,32.2197272 C42.0307127,32.6156718 41.6952175,32.9357211 41.2801642,32.9357211" id="Fill-1477" fill="#C5CCCD"></path></g><g id="Clipboard" transform="translate(0.299897, 11.119382)"><rect id="Rectangle-Copy-7" fill="#30404D" fill-rule="nonzero" transform="translate(6.837302, 10.162478) rotate(-142.000000) translate(-6.837302, -10.162478) " x="5.03796617" y="2.24456357" width="3.59867109" height="15.8358298" rx="1.79933554"></rect><g id="Group" transform="translate(16.094376, 18.231040) rotate(18.000000) translate(-16.094376, -18.231040) translate(5.094376, 3.231040)"><g id="Fill-1"><use fill="#8B572A" xlink:href="#path-3"></use><use fill-opacity="0.4" fill="url(#linearGradient-2)" style="mix-blend-mode: overlay;" xlink:href="#path-3"></use></g><path d="M1.81382334,19.1123321 C0.815767049,19.1123321 0,19.0047802 0,18.8733279 L0,15.8857743 C0,15.754322 0.815767049,15.6467701 1.81382334,15.6467701 L19.9520568,15.6467701 C20.9496596,15.6467701 21.7658801,15.754322 21.7658801,15.8857743 L21.7658801,18.8733279 C21.7658801,19.0047802 20.9496596,19.1123321 19.9520568,19.1123321 L1.81382334,19.1123321" id="Fill-1-Copy" fill="#7D4E25"></path><g id="Group-6" transform="translate(6.348382, 0.000000)"><mask id="mask-5" fill="white"><use xlink:href="#path-4"></use></mask><g id="Clip-4"></g><path d="M0.453455836,3.17419085 C0.204055126,3.17419085 0,2.97013573 0,2.72073502 L0,3.17419085 C0,3.42359156 0.204055126,3.62764669 0.453455836,3.62764669 L8.61566089,3.62764669 C8.86460814,3.62764669 9.06866327,3.42359156 9.06866327,3.17419085 L9.06866327,2.72073502 C9.06866327,2.97013573 8.86460814,3.17419085 8.61566089,3.17419085 L0.453455836,3.17419085 Z" id="Fill-3" fill-opacity="0.199501812" fill="#000000" mask="url(#mask-5)"></path><path d="M4.53455836,0.906911672 C5.03472015,0.906911672 5.44147003,1.31366156 5.44147003,1.81382334 L3.62719323,1.81382334 C3.62719323,1.31366156 4.03439657,0.906911672 4.53455836,0.906911672 Z M6.34792825,1.81382334 C6.34792825,0.812139402 5.5362423,0 4.53455836,0 C3.53287442,0 2.72073502,0.812139402 2.72073502,1.81382334 L0.453455836,1.81382334 C0.204055126,1.81382334 0,2.01787847 0,2.26727918 L0,2.72073502 C0,2.97013573 0.204055126,3.17419085 0.453455836,3.17419085 L8.61566089,3.17419085 C8.86460814,3.17419085 9.06866327,2.97013573 9.06866327,2.72073502 L9.06866327,2.26727918 C9.06866327,2.01787847 8.86460814,1.81382334 8.61566089,1.81382334 L6.34792825,1.81382334 Z" id="Fill-5" fill="#30404D" mask="url(#mask-5)"></path></g><polygon id="Fill-7" fill="#182A37" points="15.417045 3.17419085 15.8705008 3.17419085 15.8705008 2.72073502 15.417045 2.72073502"></polygon><polygon id="Fill-8" fill="#182A37" points="5.89447241 3.02264909 6.34792825 3.02264909 6.34792825 2.72073502 5.89447241 2.72073502"></polygon></g><rect id="Rectangle-Copy-9" fill="#30404D" fill-rule="nonzero" transform="translate(14.906819, 19.077549) rotate(-73.000000) translate(-14.906819, -19.077549) " x="13.1074832" y="5.01634711" width="3.59867109" height="28.1224047" rx="1.79933554"></rect><rect id="Rectangle-Copy-8" fill="#30404D" fill-rule="nonzero" transform="translate(27.068085, 22.442606) rotate(39.000000) translate(-27.068085, -22.442606) " x="25.2687499" y="20.2954822" width="3.59867109" height="4.29424706" rx="1.79933554"></rect></g></g><g id="Hat" filter="url(#filter-6)" transform="translate(70.790963, 22.281609) rotate(39.000000) translate(-70.790963, -22.281609) translate(58.790963, 14.281609)"><path d="M14.059613,0.27286712 C13.3165543,-0.0908030966 10.3663528,0.129413489 7.79619026,1.36570909 L9.76248468,12.5177028 L19.479079,10.1864287 L14.059613,0.27286712 Z" id="Shape" fill="#ACC0C6" fill-rule="nonzero"></path><path d="M3.12981193,2.89516898 L3.70070591,13.9717733 L10.1607581,12.4223214 L8.00208894,1.26956464 C5.7329487,1.38600626 3.49587091,2.23085658 3.12981193,2.89516898" id="Shape" fill="#8A9A9E" fill-rule="nonzero"></path><polygon id="Shape" fill="#45565A" fill-rule="nonzero" points="16.7881124 5.26368001 9.1452445 7.17527595 3.41715835 8.47124216 3.62077771 12.4221688 9.79363541 11.0123554 18.7208248 8.79904897"></polygon><polygon id="Shape" fill="#000000" fill-rule="nonzero" opacity="0.3" points="3.41715835 8.47124216 3.62077771 12.4221688 9.79363541 11.0123554 9.86505414 10.9946526 9.11865242 7.18122775"></polygon><polygon id="Shape" fill="#45565A" fill-rule="nonzero" points="16.7881124 5.26368001 9.1452445 7.17527595 9.11865242 7.18122775 9.86505414 10.9946526 18.7208248 8.79904897"></polygon><g id="Group" opacity="0.14" transform="translate(3.646914, 10.987938)"><g><rect id="Rectangle-path" transform="translate(3.089139, 1.881434) rotate(179.919786) translate(-3.089139, -1.881434) " x="0.0330225458" y="0.558301375" width="6.11223374" height="2.64626426"></rect><polygon id="Shape" fill="#384849" fill-rule="nonzero" points="0.0340378634 2.90447821 6.14672148 0.0244176394 6.51384415 1.4342311 0.109103508 3.20908826"></polygon></g></g><path d="M23.1015283,9.86060585 C23.119307,9.93279049 23.1073025,10.0084852 23.0680982,10.0721236 C23.0293497,10.1353043 22.9667444,10.1807821 22.8938061,10.1978745 L0.524547787,15.564719 C0.373048904,15.6011929 0.220182429,15.5088637 0.183561335,15.3588478 L0.123995074,15.117571 C0.106064413,15.0453864 0.118372748,14.9692338 0.157577073,14.9060532 C0.196325533,14.8428726 0.259082844,14.7973947 0.332021122,14.7803024 L22.7008236,9.4131526 C22.8524744,9.37713659 23.0053409,9.46916056 23.0421139,9.61871861 L23.1015283,9.86060585 Z" id="Shape" stroke="#CEE1E7" fill="#AFBFC6" fill-rule="nonzero"></path></g><g id="Azure-Border" transform="translate(0.986478, 0.000000)" stroke="#0078D4" stroke-width="4"><rect x="2" y="2" width="96" height="96" rx="48"></rect></g></g></g></g></svg>

<svg xmlns="http://www.w3.org/2000/svg" xmlns:xlink="http://www.w3.org/1999/xlink" viewBox="0 0 100 100"><defs><filter x="-2%" y="-2.6%" width="104.1%" height="110.3%" filterUnits="objectBoundingBox" id="a"><feOffset dy="2" in="SourceAlpha" result="shadowOffsetOuter1"/><feColorMatrix values="0 0 0 0 0 0 0 0 0 0 0 0 0 0 0 0 0 0 0.0979676178 0" in="shadowOffsetOuter1" result="shadowMatrixOuter1"/><feMerge><feMergeNode in="shadowMatrixOuter1"/><feMergeNode in="SourceGraphic"/></feMerge></filter><linearGradient x1="50%" y1="0%" x2="50%" y2="100%" id="c"><stop stop-color="#FFF" stop-opacity=".5" offset="0%"/><stop stop-opacity=".5" offset="100%"/></linearGradient><path d="M1.814 29.021A1.819 1.819 0 0 1 0 27.207V4.535C0 3.537.816 2.72 1.814 2.72h18.138a1.82 1.82 0 0 1 1.814 1.814v22.672a1.82 1.82 0 0 1-1.814 1.814H1.814" id="b"/><path id="d" d="M0 .018h9.069v5.423H0z"/><filter x="-10.4%" y="-3.1%" width="112.5%" height="118.8%" filterUnits="objectBoundingBox" id="f"><feOffset dx="-1" dy="1" in="SourceAlpha" result="shadowOffsetOuter1"/><feColorMatrix values="0 0 0 0 0 0 0 0 0 0 0 0 0 0 0 0 0 0 0.0955615942 0" in="shadowOffsetOuter1" result="shadowMatrixOuter1"/><feMerge><feMergeNode in="shadowMatrixOuter1"/><feMergeNode in="SourceGraphic"/></feMerge></filter></defs><g transform="translate(-.986)" fill="none" fill-rule="evenodd"><rect fill="#D9EAF8" x="3" y="2" width="96" height="96" rx="48"/><ellipse fill="#000" opacity=".1" cx="50.565" cy="81.696" rx="23.082" ry="4.022"/><g fill="#30404D" fill-rule="nonzero"><path d="M56.755 80.117l1.588-8.166a10 10 0 0 0-.611-5.815l-2.813-6.626a1.8 1.8 0 1 1 3.313-1.406l3.134 7.51a10 10 0 0 1 .626 5.55l-1.33 7.715.66.035a1.8 1.8 0 1 1-.19 3.594l-2.489-.13c-1.104.019-2.084-.894-1.888-2.261zM42.031 79.138l-.416-4.546a50 50 0 0 1 .164-10.657l.662-5.395a1.8 1.8 0 1 1 3.572.438l-.605 4.928a50 50 0 0 0-.183 10.452l.554 6.324c.033.378-.054.74-.228 1.046-.294.542-.86.918-1.52.941l-3.322.116a1.8 1.8 0 0 1-.126-3.596l1.448-.05z"/></g><path d="M74.103 48.438l4.47-5.327a2 2 0 0 0-.169-2.748l-5.602-5.224a1.8 1.8 0 0 1-.088-2.543c.677-.727.753-1.51 1.48-.833l8.314 8.621a2 2 0 0 1 .18 2.562l-4.548 6.279a1.8 1.8 0 0 1-1.83 3.001l-1.45-.499a1.8 1.8 0 0 1-1.177-2.059c-.018-.432.12-.872.42-1.23z" fill="#30404D" fill-rule="nonzero"/><g filter="url(#a)" transform="rotate(1 -1222.28 1555.803)"><path d="M3.002 38.664C1.351 38.664 0 37.374 0 35.8V2.864C0 1.289 1.351 0 3.002 0h42.03c1.652 0 3.003 1.289 3.003 2.864V35.8c0 1.575-1.35 2.864-3.002 2.864H3.003" fill="#30404D"/><path d="M3.753 36.516c-.826 0-1.501-.645-1.501-1.432V7.876c0-.788.675-1.432 1.5-1.432h40.53c.826 0 1.501.644 1.501 1.432v27.208c0 .787-.675 1.432-1.5 1.432H3.752" fill="#E1E4E1"/><path d="M3.002 3.222c0-.594.505-1.074 1.126-1.074.622 0 1.126.48 1.126 1.074 0 .593-.504 1.074-1.126 1.074-.621 0-1.126-.481-1.126-1.074" fill="#DF5142"/><path d="M7.505 3.222c0-.594.505-1.074 1.126-1.074.623 0 1.126.48 1.126 1.074 0 .593-.503 1.074-1.126 1.074-.621 0-1.126-.481-1.126-1.074" fill="#EFB252"/><path d="M12.009 3.222c0-.594.504-1.074 1.126-1.074.622 0 1.125.48 1.125 1.074 0 .593-.503 1.074-1.125 1.074s-1.126-.481-1.126-1.074" fill="#7CB65A"/><path d="M44.658 4.296H19.139c-.622 0-1.126-.481-1.126-1.074 0-.593.504-1.074 1.126-1.074h25.519c.622 0 1.125.481 1.125 1.074 0 .593-.503 1.074-1.125 1.074" fill="#697D85"/><path d="M19.514 20.048c0 .394-.337.716-.75.716H6.754c-.412 0-.75-.322-.75-.716V10.74c0-.394.338-.716.75-.716h12.01c.413 0 .75.322.75.716v9.308M41.28 11.456H22.516c-.415 0-.75-.32-.75-.716 0-.396.335-.716.75-.716H41.28c.415 0 .75.32.75.716 0 .396-.335.716-.75.716M41.28 15.752H22.516c-.415 0-.75-.32-.75-.716 0-.396.335-.716.75-.716H41.28c.415 0 .75.32.75.716 0 .396-.335.716-.75.716M41.28 20.048H22.516c-.415 0-.75-.32-.75-.716 0-.396.335-.716.75-.716H41.28c.415 0 .75.32.75.716 0 .396-.335.716-.75.716M41.28 24.344H6.755c-.415 0-.75-.32-.75-.716 0-.396.335-.716.75-.716H41.28c.415 0 .75.32.75.716 0 .396-.335.716-.75.716M41.28 28.64H6.755c-.415 0-.75-.32-.75-.716 0-.396.335-.716.75-.716H41.28c.415 0 .75.32.75.716 0 .396-.335.716-.75.716M41.28 32.936H6.755c-.415 0-.75-.32-.75-.716 0-.396.335-.716.75-.716H41.28c.415 0 .75.32.75.716 0 .396-.335.716-.75.716" fill="#C5CCCD"/></g><g transform="rotate(-1 1843.594 -953.311)"><rect fill="#30404D" fill-rule="nonzero" transform="rotate(-142 6.837 10.162)" x="5.038" y="2.245" width="3.599" height="15.836" rx="1.799"/><g transform="rotate(18 3.347 32.698)"><use fill="#8B572A" xlink:href="#b"/><use fill-opacity=".4" fill="url(#c)" style="mix-blend-mode:overlay" xlink:href="#b"/></g><path d="M6.087 19.303c-.95-.308-1.692-.662-1.651-.787l.923-2.842c.04-.125.85.025 1.799.333l17.25 5.605c.95.309 1.692.663 1.652.788l-.924 2.842c-.04.125-.85-.025-1.798-.334L6.087 19.303" fill="#7D4E25"/><g transform="rotate(18 .173 52.739)"><mask id="e" fill="#fff"><use xlink:href="#d"/></mask><path d="M.453 3.174A.455.455 0 0 1 0 2.721v.453c0 .25.204.454.453.454h8.163a.455.455 0 0 0 .453-.454v-.453c0 .25-.204.453-.453.453H.453z" fill-opacity=".2" fill="#000" mask="url(#e)"/><path d="M4.535.907c.5 0 .906.407.906.907H3.627c0-.5.407-.907.908-.907zm1.813.907a1.814 1.814 0 1 0-3.627 0H.453A.455.455 0 0 0 0 2.267v.454c0 .25.204.453.453.453h8.163a.455.455 0 0 0 .453-.453v-.454a.455.455 0 0 0-.453-.453H6.348z" fill="#30404D" mask="url(#e)"/></g><path fill="#182A37" d="M23.95 8.349l.43.14.141-.431-.431-.14zM14.94 5.262l.431.14.093-.287-.43-.14z"/><rect fill="#30404D" fill-rule="nonzero" transform="rotate(-73 14.907 19.078)" x="13.107" y="5.016" width="3.599" height="28.122" rx="1.799"/><rect fill="#30404D" fill-rule="nonzero" transform="rotate(39 27.068 22.443)" x="25.269" y="20.295" width="3.599" height="4.294" rx="1.799"/></g><g filter="url(#f)" transform="rotate(39 21.23 98.151)"><path d="M14.06.273c-.743-.364-3.694-.144-6.264 1.093l1.966 11.152 9.717-2.332L14.06.273z" fill="#ACC0C6" fill-rule="nonzero"/><path d="M3.13 2.895l.57 11.077 6.46-1.55L8.003 1.27c-2.27.116-4.506.96-4.872 1.625" fill="#8A9A9E" fill-rule="nonzero"/><path fill="#45565A" fill-rule="nonzero" d="M16.788 5.264L9.145 7.175 3.417 8.471l.204 3.951 6.173-1.41L18.72 8.8z"/><path fill="#000" fill-rule="nonzero" opacity=".3" d="M3.417 8.471l.204 3.951 6.173-1.41.071-.017L9.12 7.18z"/><path fill="#45565A" fill-rule="nonzero" d="M16.788 5.264L9.145 7.175l-.026.006.746 3.814 8.856-2.196z"/><g opacity=".14"><path d="M9.794 14.189l-6.112.008-.004-2.646 6.112-.008z"/><path fill="#384849" fill-rule="nonzero" d="M3.681 13.892l6.113-2.88.367 1.41-6.405 1.775z"/></g><path d="M23.102 9.86a.28.28 0 0 1-.208.337L.524 15.566a.283.283 0 0 1-.34-.206l-.06-.241a.28.28 0 0 1 .208-.337l22.369-5.368a.283.283 0 0 1 .341.206l.06.242z" stroke="#CEE1E7" fill="#AFBFC6" fill-rule="nonzero"/></g><g transform="translate(.986)" stroke="#0078D4" stroke-width="4"><rect x="2" y="2" width="96" height="96" rx="48"/></g></g></svg>
